(/Applications/pcbgcode.repo/pcb-gcode.ulp)
(Copyright 2005 - 2012 by John Johnson)
(See readme.txt for licensing terms.)
(This file generated from the board:)
(.../x0x-heart-power/x0x-heart-power.brd)
(Current profile is .../pcbgcode.repo/profiles/mach.pp  )
(This file generated 3/30/16 10:36 PM)
(Settings from pcb-machine.h)
(spindle on time = 0.0000)
(spindle speed = 15000.0000)
(milling depth = -0.0700)
(tool change at 0.0000  0.0000  1.5000  )
(feed rate xy = F10    )
(feed rate z  = F5     )
(Z Axis Settings)
(  High     Up        Down     Drill)
(0.2500  	0.0500  	-0.0035 	-0.0730 )
(Settings from pcb-defaults.h)
(isolate min = 0.0050)
(isolate max = 0.0200)
(isolate step = 0.0015)
(Generated bottom outlines, bottom drill, )
(Unit of measure: inch)
(Inch Mode)
G20
(Absolute Coordinates)
G90
S15000
G00 Z0.2500  
G00 X0.0000  Y0.0000  
M03
G04 P0.000000
G00 Z0.0500  
G01 Z-0.0700 F5     
G01 X-3.5000 Y0.0000  F10    
G01 X-3.5000 Y1.7100  
G01 X0.0000  Y1.7100  
G01 X0.0000  Y0.0000  
G00 Z0.0500  
G00 X-0.1200 Y0.1300  
G01 Z-0.0700 F5     
G01 X-0.1700 Y0.1300  F10    
G01 X-0.1700 Y0.1800  
G01 X-0.1200 Y0.1800  
G01 X-0.1200 Y0.1300  
G00 Z0.0500  
G00 X-0.1200 Y1.5500  
G01 Z-0.0700 F5     
G01 X-0.1700 Y1.5500  F10    
G01 X-0.1700 Y1.6000  
G01 X-0.1200 Y1.6000  
G01 X-0.1200 Y1.5500  
G00 Z0.0500  
G00 X-3.3200 Y1.5400  
G01 Z-0.0700 F5     
G01 X-3.3700 Y1.5400  F10    
G01 X-3.3700 Y1.5900  
G01 X-3.3200 Y1.5900  
G01 X-3.3200 Y1.5400  
G00 Z0.0500  
G00 X-3.3100 Y0.1900  
G01 Z-0.0700 F5     
G01 X-3.3600 Y0.1900  F10    
G01 X-3.3600 Y0.1400  
G01 X-3.3100 Y0.1400  
G01 X-3.3100 Y0.1900  
G00 Z0.2500  
M05
M02
