(/Applications/pcbgcode.repo/pcb-gcode.ulp)
(Copyright 2005 - 2012 by John Johnson)
(See readme.txt for licensing terms.)
(This file generated from the board:)
(.../x0x-heart-power/x0x-heart-power.brd)
(Current profile is .../pcbgcode.repo/profiles/mach.pp  )
(This file generated 3/18/16 9:19 PM)
(Settings from pcb-machine.h)
(spindle on time = 0.0000)
(spindle speed = 20000.0000)
(tool change at 0.0000  0.0000  3.0000  )
(feed rate xy = F0     )
(feed rate z  = F20    )
(Z Axis Settings)
(  High     Up        Down     Drill)
(0.2500  	0.0500  	-0.0030 	-0.0730 )
(Settings from pcb-defaults.h)
(isolate min = 0.0040)
(isolate max = 0.0150)
(isolate step = 0.0015)
(Generated bottom outlines, bottom drill, )
(Unit of measure: inch)
( Tool|       Size       |  Min Sub |  Max Sub |   Count )
( T01 | 0.813mm 0.0320in | 0.0000in | 0.0000in |       0 )
( T02 | 1.016mm 0.0400in | 0.0000in | 0.0000in |       0 )
( T03 | 1.118mm 0.0440in | 0.0000in | 0.0000in |       0 )
( T04 | 1.700mm 0.0669in | 0.0000in | 0.0000in |       0 )
( T05 | 3.302mm 0.1300in | 0.0000in | 0.0000in |       0 )
(Inch Mode)
G20
(Absolute Coordinates)
G90
S20000
G00 Z0.2500  
G00 X0.0000  Y0.0000  
M03
G04 P0.000000
M05
G00 Z3.0000  
M06 T01  ; 0.0320  
G01 Z0.0000  F20    
M06 
G00 Z0.0500  
M03
G04 P0.000000
G82 X-1.1000 Y0.1600  Z-0.0730 F20    R0.0500  P0.010000
G82 X-1.1000 Y0.2400  
G82 X-1.1000 Y1.0100  
G82 X-1.1000 Y1.0900  
G82 X-1.1000 Y1.5100  
G82 X-1.1000 Y1.5900  
G82 X-2.3500 Y1.3900  
G82 X-2.3500 Y1.3100  
G82 X-2.5500 Y1.3000  
G82 X-2.5500 Y1.4000  
G82 X-2.5500 Y0.9000  
G82 X-2.5500 Y0.8000  
G82 X-2.3500 Y0.8100  
G82 X-2.3500 Y0.8900  
G82 X-2.3500 Y0.3900  
G82 X-2.3500 Y0.3100  
G82 X-2.5500 Y0.3000  
G82 X-2.5500 Y0.4000  
M05
G00 Z3.0000  
G00 X0.0000  Y0.0000  
M06 T02  ; 0.0400  
G01 Z0.0000  F20    
M06 
G00 Z0.0500  
M03
G04 P0.000000
G82 X-0.5000 Y0.4500  Z-0.0730 F20    R0.0500  P0.010000
G82 X-0.5000 Y0.8000  
G82 X-0.5000 Y1.3000  
G82 X-1.4000 Y1.3000  
G82 X-1.4000 Y0.8000  
G82 X-1.4000 Y0.4500  
G82 X-2.8500 Y0.4500  
G82 X-2.8500 Y0.5500  
G82 X-2.8500 Y0.6500  
G82 X-2.8500 Y0.7500  
G82 X-2.8500 Y0.8500  
G82 X-2.8500 Y0.9500  
G82 X-2.8500 Y1.0500  
G82 X-2.8500 Y1.1500  
G82 X-2.9500 Y1.1500  
G82 X-2.9500 Y1.0500  
G82 X-2.9500 Y0.9500  
G82 X-2.9500 Y0.8500  
G82 X-2.9500 Y0.7500  
G82 X-2.9500 Y0.6500  
G82 X-2.9500 Y0.5500  
G82 X-2.9500 Y0.4500  
G82 X-3.3000 Y0.4500  
G82 X-3.3000 Y0.5500  
G82 X-3.3000 Y0.6500  
G82 X-3.3000 Y0.7500  
G82 X-3.3000 Y0.8500  
G82 X-3.3000 Y0.9500  
G82 X-3.3000 Y1.0500  
G82 X-3.3000 Y1.1500  
G82 X-3.4000 Y1.1500  
G82 X-3.4000 Y1.0500  
G82 X-3.4000 Y0.9500  
G82 X-3.4000 Y0.8500  
G82 X-3.4000 Y0.7500  
G82 X-3.4000 Y0.6500  
G82 X-3.4000 Y0.5500  
G82 X-3.4000 Y0.4500  
M05
G00 Z3.0000  
G00 X0.0000  Y0.0000  
M06 T03  ; 0.0440  
G01 Z0.0000  F20    
M06 
G00 Z0.0500  
M03
G04 P0.000000
G82 X-0.5000 Y0.2000  Z-0.0730 F20    R0.0500  P0.010000
G82 X-0.9000 Y0.2000  
G82 X-0.9000 Y1.0500  
G82 X-0.5000 Y1.0500  
G82 X-0.5000 Y1.5500  
G82 X-0.9000 Y1.5500  
G82 X-1.7500 Y1.4500  
G82 X-1.7500 Y1.3500  
G82 X-1.7500 Y1.2500  
G82 X-1.9500 Y1.2000  
G82 X-1.9500 Y1.0500  
G82 X-2.1500 Y1.0500  
G82 X-2.1500 Y1.2000  
G82 X-2.1500 Y1.6000  
G82 X-1.9500 Y1.6000  
G82 X-1.7500 Y0.9500  
G82 X-1.7500 Y0.8500  
G82 X-1.7500 Y0.7500  
G82 X-1.9500 Y0.6500  
G82 X-1.9500 Y0.5000  
G82 X-2.1500 Y0.5000  
G82 X-2.1500 Y0.6500  
G82 X-1.7500 Y0.4500  
G82 X-1.7500 Y0.3500  
G82 X-1.7500 Y0.2500  
G82 X-1.9500 Y0.1000  
G82 X-2.1500 Y0.1000  
M05
G00 Z3.0000  
G00 X0.0000  Y0.0000  
M06 T04  ; 0.0669  
G01 Z0.0000  F20    
M06 
G00 Z0.0500  
M03
G04 P0.000000
G82 X-0.2500 Y1.1720  Z-0.0730 F20    R0.0500  P0.010000
G82 X-0.2500 Y1.3280  
M05
G00 Z3.0000  
G00 X0.0000  Y0.0000  
M06 T05  ; 0.1300  
G01 Z0.0000  F20    
M06 
G00 Z0.0500  
M03
G04 P0.000000
G82 X-2.3400 Y0.3500  Z-0.0730 F20    R0.0500  P0.010000
G82 X-2.3400 Y0.8500  
G82 X-2.3400 Y1.3500  
T01 
G00 Z0.2500  
M05
M02
